docs/ref-arch/images/solution-diagram-example.svg

<?xml version="1.0" encoding="UTF-8"?>
<!-- Generated by Pixelmator Pro 3.6.9 -->
<svg width="600" height="300" viewBox="0 0 600 300" xmlns="http://www.w3.org/2000/svg">
    <g id="Group">
        <filter id="filter1" x="0" y="0" width="600" height="300" filterUnits="userSpaceOnUse"
            primitiveUnits="userSpaceOnUse" color-interpolation-filters="sRGB">
            <feGaussianBlur stdDeviation="10" />
            <feOffset dx="3.535534" dy="3.535534" result="offsetblur" />
            <feFlood flood-color="#000000" flood-opacity="0.5" />
            <feComposite in2="offsetblur" operator="in" />
            <feMerge>
                <feMergeNode />
                <feMergeNode in="SourceGraphic" />
            </feMerge>
        </filter>
        <path id="Rounded-Rectangle-copy-5" fill="#0070f2" fill-rule="evenodd" stroke="none" filter="url(#filter1)"
            d="M 24 254 C 24 260.627411 29.372583 266 36 266 L 389 266 C 395.627411 266 401 260.627411 401 254 L 401 38 C 401 31.372589 395.627411 26 389 26 L 36 26 C 29.372583 26 24 31.372589 24 38 Z" />
        <path id="Rounded-Rectangle-copy-4" fill="#ebf8ff" fill-rule="evenodd" stroke="none"
            d="M 26 253 C 26 259.075134 30.924868 264 37 264 L 388 264 C 394.075134 264 399 259.075134 399 253 L 399 39 C 399 32.924866 394.075134 28 388 28 L 37 28 C 30.924868 28 26 32.924866 26 39 Z" />
    </g>
    <g id="g1">
        <path id="Rounded-Rectangle" fill="#0070f2" fill-rule="evenodd" stroke="none"
            d="M 45 231 C 45 237.627411 50.372581 243 57 243 L 366 243 C 372.627411 243 378 237.627411 378 231 L 378 93 C 378 86.372589 372.627411 81 366 81 L 57 81 C 50.372581 81 45 86.372589 45 93 Z" />
        <path id="Rounded-Rectangle-copy" fill="#ffffff" fill-rule="evenodd" stroke="none"
            d="M 47 230 C 47 236.075134 51.924866 241 58 241 L 365 241 C 371.075134 241 376 236.075134 376 230 L 376 94 C 376 87.924866 371.075134 83 365 83 L 58 83 C 51.924866 83 47 87.924866 47 94 Z" />
    </g>
    <g id="g2">
        <filter id="filter2" x="0" y="0" width="600" height="300" filterUnits="userSpaceOnUse"
            primitiveUnits="userSpaceOnUse" color-interpolation-filters="sRGB">
            <feGaussianBlur stdDeviation="10" />
            <feOffset dx="3.535534" dy="3.535534" result="offsetblur" />
            <feFlood flood-color="#000000" flood-opacity="0.5" />
            <feComposite in2="offsetblur" operator="in" />
            <feMerge>
                <feMergeNode />
                <feMergeNode in="SourceGraphic" />
            </feMerge>
        </filter>
        <path id="Rounded-Rectangle-copy-9" fill="#0070f2" fill-rule="evenodd" stroke="none" filter="url(#filter2)"
            d="M 464 126 C 464 132.627411 469.372589 138 476 138 L 564 138 C 570.627441 138 576 132.627411 576 126 L 576 38 C 576 31.372589 570.627441 26 564 26 L 476 26 C 469.372589 26 464 31.372589 464 38 Z" />
        <path id="Rounded-Rectangle-copy-8" fill="#ffffff" fill-rule="evenodd" stroke="none"
            d="M 466 125 C 466 131.075134 470.924866 136 477 136 L 563 136 C 569.075134 136 574 131.075134 574 125 L 574 39 C 574 32.924866 569.075134 28 563 28 L 477 28 C 470.924866 28 466 32.924866 466 39 Z" />
    </g>
    <g id="g3">
        <filter id="filter3" x="0" y="0" width="600" height="300" filterUnits="userSpaceOnUse"
            primitiveUnits="userSpaceOnUse" color-interpolation-filters="sRGB">
            <feGaussianBlur stdDeviation="10" />
            <feOffset dx="3.535534" dy="3.535534" result="offsetblur" />
            <feFlood flood-color="#000000" flood-opacity="0.5" />
            <feComposite in2="offsetblur" operator="in" />
            <feMerge>
                <feMergeNode />
                <feMergeNode in="SourceGraphic" />
            </feMerge>
        </filter>
        <path id="Rounded-Rectangle-copy-11" fill="#0070f2" fill-rule="evenodd" stroke="none" filter="url(#filter3)"
            d="M 466 254 C 466 260.627411 471.372589 266 478 266 L 566 266 C 572.627441 266 578 260.627411 578 254 L 578 166 C 578 159.372589 572.627441 154 566 154 L 478 154 C 471.372589 154 466 159.372589 466 166 Z" />
        <path id="Rounded-Rectangle-copy-10" fill="#ffffff" fill-rule="evenodd" stroke="none"
            d="M 468 253 C 468 259.075134 472.924866 264 479 264 L 565 264 C 571.075134 264 576 259.075134 576 253 L 576 167 C 576 160.924866 571.075134 156 565 156 L 479 156 C 472.924866 156 468 160.924866 468 167 Z" />
    </g>
    <path id="Line" fill="none" stroke="#8396a8" stroke-width="3" stroke-linecap="round" stroke-linejoin="round"
        d="M 155 146 L 259 146" />
    <path id="Line-copy" fill="none" stroke="#cc00dc" stroke-width="3" stroke-linecap="round" stroke-linejoin="round"
        d="M 332 145 L 427 145" />
    <path id="Line-copy-3" fill="none" stroke="#cc00dc" stroke-width="3" stroke-linecap="round" stroke-linejoin="round"
        d="M 445 230 L 506 230" />
    <path id="Line-copy-2" fill="none" stroke="#cc00dc" stroke-width="3" stroke-linecap="round" stroke-linejoin="round"
        d="M 436 221 L 436 154" />
    <path id="Polygon" fill="#8396a8" fill-rule="evenodd" stroke="none"
        d="M 258.009399 139.690277 L 258.009399 151.814636 L 268.509399 145.752457 Z" />
    <path id="Polygon-copy-2" fill="#cc00dc" fill-rule="evenodd" stroke="none"
        d="M 507.009399 223.690277 L 507.009399 235.814636 L 517.509399 229.752457 Z" />
    <path id="Path" fill="none" stroke="#cc00dc" stroke-width="3" stroke-linecap="round" stroke-linejoin="round"
        d="M 428 145.000015 C 437.262482 144.986588 435.93399 153 435.93399 153" />
    <path id="Path-copy" fill="none" stroke="#cc00dc" stroke-width="3" stroke-linecap="round" stroke-linejoin="round"
        d="M 444 229.999985 C 434.737518 230.013412 436.06601 222 436.06601 222" />
    <path id="path1" fill="#0070f2" fill-rule="evenodd" stroke="none" d="M 46 68 L 66 68 L 66 47 L 46 47 Z" />
    <path id="path2" fill="#0070f2" fill-rule="evenodd" stroke="none" d="M 66.5 68 L 46.148403 47 L 86.851593 47 Z" />
    <g id="g4">
        <path id="Rounded-Rectangle-copy-12" fill="#0070f2" fill-rule="evenodd" stroke="none"
            d="M 485 194 L 505 194 L 505 173 L 485 173 Z" />
        <path id="Polygon-copy" fill="#0070f2" fill-rule="evenodd" stroke="none"
            d="M 505.5 194 L 485.148407 173 L 525.851624 173 Z" />
    </g>
    <path id="path3" fill="#d1efff" fill-rule="evenodd" stroke="none"
        d="M 97 160 C 97 166.075134 101.924866 171 108 171 L 138 171 C 144.075134 171 149 166.075134 149 160 L 149 130 C 149 123.924866 144.075134 119 138 119 L 108 119 C 101.924866 119 97 123.924866 97 130 Z" />
    <path id="Rounded-Rectangle-copy-14" fill="#cc00dc" fill-rule="evenodd" stroke="none"
        d="M 358 144.5 C 358 149.746704 362.253296 154 367.5 154 L 409.5 154 C 414.746704 154 419 149.746704 419 144.5 C 419 139.253296 414.746704 135 409.5 135 L 367.5 135 C 362.253296 135 358 139.253296 358 144.5 Z" />
    <path id="Rounded-Rectangle-copy-3" fill="#cad4db" fill-rule="evenodd" stroke="none"
        d="M 91 186 C 91 189.313705 93.686295 192 97 192 L 149 192 C 152.313705 192 155 189.313705 155 186 C 155 182.686295 152.313705 180 149 180 L 97 180 C 93.686295 180 91 182.686295 91 186 Z" />
    <path id="Rounded-Rectangle-copy-15" fill="#cad4db" fill-rule="evenodd" stroke="none"
        d="M 101 204 C 101 207.313705 103.686295 210 107 210 L 139 210 C 142.313705 210 145 207.313705 145 204 C 145 200.686295 142.313705 198 139 198 L 107 198 C 103.686295 198 101 200.686295 101 204 Z" />
    <path id="Rounded-Rectangle-copy-16" fill="#cad4db" fill-rule="evenodd" stroke="none"
        d="M 278 204 C 278 207.313705 280.686279 210 284 210 L 316 210 C 319.313721 210 322 207.313705 322 204 C 322 200.686295 319.313721 198 316 198 L 284 198 C 280.686279 198 278 200.686295 278 204 Z" />
    <path id="Rounded-Rectangle-copy-7" fill="#8396a8" fill-rule="evenodd" stroke="none"
        d="M 94 57 C 94 60.313705 96.686295 63 100 63 L 152 63 C 155.313705 63 158 60.313705 158 57 C 158 53.686295 155.313705 51 152 51 L 100 51 C 96.686295 51 94 53.686295 94 57 Z" />
    <path id="Rounded-Rectangle-copy-13" fill="#8396a8" fill-rule="evenodd" stroke="none"
        d="M 485 51 C 485 54.313705 487.686279 57 491 57 L 543 57 C 546.313721 57 549 54.313705 549 51 C 549 47.686295 546.313721 45 543 45 L 491 45 C 487.686279 45 485 47.686295 485 51 Z" />
    <path id="Rounded-Rectangle-copy-6" fill="#cad4db" fill-rule="evenodd" stroke="none"
        d="M 268 186 C 268 189.313705 270.686279 192 274 192 L 326 192 C 329.313721 192 332 189.313705 332 186 C 332 182.686295 329.313721 180 326 180 L 274 180 C 270.686279 180 268 182.686295 268 186 Z" />
    <path id="Rounded-Rectangle-copy-2" fill="#d1efff" fill-rule="evenodd" stroke="none"
        d="M 274 160 C 274 166.075134 278.924866 171 285 171 L 315 171 C 321.075134 171 326 166.075134 326 160 L 326 130 C 326 123.924866 321.075134 119 315 119 L 285 119 C 278.924866 119 274 123.924866 274 130 Z" />
</svg>

<svg xmlns="http://www.w3.org/2000/svg" width="600" height="300"><filter id="a" width="600" height="300" x="0" y="0" color-interpolation-filters="sRGB" filterUnits="userSpaceOnUse" primitiveUnits="userSpaceOnUse"><feGaussianBlur stdDeviation="10"/><feOffset dx="3.536" dy="3.536" result="offsetblur"/><feFlood flood-color="#000" flood-opacity=".5"/><feComposite in2="offsetblur" operator="in"/><feMerge><feMergeNode/><feMergeNode in="SourceGraphic"/></feMerge></filter><path fill="#0070f2" fill-rule="evenodd" d="M24 254c0 6.627 5.373 12 12 12h353c6.627 0 12-5.373 12-12V38c0-6.627-5.373-12-12-12H36c-6.627 0-12 5.373-12 12Z" filter="url(#a)"/><path fill="#ebf8ff" fill-rule="evenodd" d="M26 253c0 6.075 4.925 11 11 11h351c6.075 0 11-4.925 11-11V39c0-6.075-4.925-11-11-11H37c-6.075 0-11 4.925-11 11Z"/><g fill-rule="evenodd"><path fill="#0070f2" d="M45 231c0 6.627 5.373 12 12 12h309c6.627 0 12-5.373 12-12V93c0-6.627-5.373-12-12-12H57c-6.627 0-12 5.373-12 12Z"/><path fill="#fff" d="M47 230c0 6.075 4.925 11 11 11h307c6.075 0 11-4.925 11-11V94c0-6.075-4.925-11-11-11H58c-6.075 0-11 4.925-11 11Z"/></g><filter id="b" width="600" height="300" x="0" y="0" color-interpolation-filters="sRGB" filterUnits="userSpaceOnUse" primitiveUnits="userSpaceOnUse"><feGaussianBlur stdDeviation="10"/><feOffset dx="3.536" dy="3.536" result="offsetblur"/><feFlood flood-color="#000" flood-opacity=".5"/><feComposite in2="offsetblur" operator="in"/><feMerge><feMergeNode/><feMergeNode in="SourceGraphic"/></feMerge></filter><path fill="#0070f2" fill-rule="evenodd" d="M464 126c0 6.627 5.373 12 12 12h88c6.627 0 12-5.373 12-12V38c0-6.627-5.373-12-12-12h-88c-6.627 0-12 5.373-12 12Z" filter="url(#b)"/><path fill="#fff" fill-rule="evenodd" d="M466 125c0 6.075 4.925 11 11 11h86c6.075 0 11-4.925 11-11V39c0-6.075-4.925-11-11-11h-86c-6.075 0-11 4.925-11 11Z"/><filter id="c" width="600" height="300" x="0" y="0" color-interpolation-filters="sRGB" filterUnits="userSpaceOnUse" primitiveUnits="userSpaceOnUse"><feGaussianBlur stdDeviation="10"/><feOffset dx="3.536" dy="3.536" result="offsetblur"/><feFlood flood-color="#000" flood-opacity=".5"/><feComposite in2="offsetblur" operator="in"/><feMerge><feMergeNode/><feMergeNode in="SourceGraphic"/></feMerge></filter><path fill="#0070f2" fill-rule="evenodd" d="M466 254c0 6.627 5.373 12 12 12h88c6.627 0 12-5.373 12-12v-88c0-6.627-5.373-12-12-12h-88c-6.627 0-12 5.373-12 12Z" filter="url(#c)"/><path fill="#fff" fill-rule="evenodd" d="M468 253c0 6.075 4.925 11 11 11h86c6.075 0 11-4.925 11-11v-86c0-6.075-4.925-11-11-11h-86c-6.075 0-11 4.925-11 11Z"/><path fill="none" stroke="#8396a8" stroke-linecap="round" stroke-linejoin="round" stroke-width="3" d="M155 146h104"/><path fill="none" stroke="#cc00dc" stroke-linecap="round" stroke-linejoin="round" stroke-width="3" d="M332 145h95M445 230h61M436 221v-67"/><path fill="#8396a8" fill-rule="evenodd" d="M258.01 139.69v12.125l10.5-6.063Z"/><path fill="#cc00dc" fill-rule="evenodd" d="M507.01 223.69v12.125l10.5-6.063Z"/><path fill="none" stroke="#cc00dc" stroke-linecap="round" stroke-linejoin="round" stroke-width="3" d="M428 145c9.262-.013 7.934 8 7.934 8M444 230c-9.262.013-7.934-8-7.934-8"/><path fill="#0070f2" fill-rule="evenodd" d="M46 68h20V47H46Z"/><path fill="#0070f2" fill-rule="evenodd" d="M66.5 68 46.148 47h40.704Z"/><g fill="#0070f2" fill-rule="evenodd"><path d="M485 194h20v-21h-20Z"/><path d="m505.5 194-20.352-21h40.704Z"/></g><path fill="#d1efff" fill-rule="evenodd" d="M97 160c0 6.075 4.925 11 11 11h30c6.075 0 11-4.925 11-11v-30c0-6.075-4.925-11-11-11h-30c-6.075 0-11 4.925-11 11Z"/><path fill="#cc00dc" fill-rule="evenodd" d="M358 144.5a9.5 9.5 0 0 0 9.5 9.5h42a9.5 9.5 0 0 0 0-19h-42a9.5 9.5 0 0 0-9.5 9.5"/><path fill="#cad4db" fill-rule="evenodd" d="M91 186a6 6 0 0 0 6 6h52a6 6 0 0 0 0-12H97a6 6 0 0 0-6 6M101 204a6 6 0 0 0 6 6h32a6 6 0 0 0 0-12h-32a6 6 0 0 0-6 6M278 204a6 6 0 0 0 6 6h32a6 6 0 1 0 0-12h-32a6 6 0 0 0-6 6"/><path fill="#8396a8" fill-rule="evenodd" d="M94 57a6 6 0 0 0 6 6h52a6 6 0 0 0 0-12h-52a6 6 0 0 0-6 6M485 51a6 6 0 0 0 6 6h52a6 6 0 1 0 0-12h-52a6 6 0 0 0-6 6"/><path fill="#cad4db" fill-rule="evenodd" d="M268 186a6 6 0 0 0 6 6h52a6 6 0 1 0 0-12h-52a6 6 0 0 0-6 6"/><path fill="#d1efff" fill-rule="evenodd" d="M274 160c0 6.075 4.925 11 11 11h30c6.075 0 11-4.925 11-11v-30c0-6.075-4.925-11-11-11h-30c-6.075 0-11 4.925-11 11Z"/></svg>
